**kern	**kern	**dynam
*part1	*part1	*part1
*staff2	*staff1	*
*I"Piano	*	*
*clefF4	*clefG2	*
*k[b-e-a-]	*k[b-e-a-]	*
=1	=1	=1
*	*^	*
8AAA-L 8AA-	8e-L	4c	<
8BBB- 8BB-	8a-	.	.
8CCJ) 8C	8gJ)	8e-	.
=	=	=	=
(4DD 4D	(8fL	4B-	.
.	8g	.	.
8CC 8C	8e-J	8B-	[
*	*v	*v	*
=	=	=
8BBB-L 8BB-	8B-L 8d 8f	.
8CC 8C	8d 8f 8b-	.
8DDJ) 8D	8cJ) 8f 8a-	.
=	=	=
*	*^	*
(8EE-L 8E-	(8e-L 8g	4.B-	.
8DD 8D	8f 8a-	.	.
8CCJ 8C	8gJ 8b-	.	.
*	*v	*v	*
=	=	=
!	!LO:TX:b:i:t=cresc.	!
8BBB-L 8BB-	8e-L 8a- 8cc	.
8AAA- 8AA-	8f 8b- 8dd	.
8GGGJ 8GG	8gJ 8b- 8ee-	.
=	=	=
8FFFL 8FF	8a-L 8cc 8ff	.
8GGG 8GG	8g 8b- 8ee-	.
8AAA-J 8AA-	8fJ 8b- 8dd	.
=	=	=
*	*^	*
8BBB-L 8BB-	8a-L 8cc	4e-	.
8CC 8C	8g 8b-	.	.
8DDJ 8D	8fJ 8a-	8c	.
*	*v	*v	*
=	=	=
*-	*-	*-
!!!system-decoration: {(s1,s2)}
